X:345
T: Vergebliche Warnung (80c), S. 220
N: T0234
O: Luxemburg
S: Singendes Volk, Esch-Alzette 1937 posth.]
N: Heffingen, hhh Nikolaus Ewen , 2.6.1935
R: Liebeslieder]
M: 3/4
L: 1/8
K: F
F | FAc2c2 | BA2Gz
F | FFd2d2 | cBA2z
F | FAc2f2 | d4z
c | dcc2cB | A4z

